jsapp/svg-icons/photo-gallery.svg

<svg height="40" viewBox="0 0 40 40" width="40" xmlns="http://www.w3.org/2000/svg"><path d="m26.9839015 26h-13.9867424v-10h13.9867424zm-14.9857954-13h15.9848484v1h-15.9848484zm17.9829545 2v-3c0-.552-.4475758-1-.999053-1h-17.9829546c-.5514772 0-.999053.448-.999053 1v3c0 .552.4475758 1 .999053 1v10h-.999053v2h8.9914773v2h1.998106v-2h8.9914773v-2h-.999053v-10c.5514772 0 .999053-.448.999053-1zm-3.9962121 10v-2h-1.2777888l-1.770322-5.316c-.1368703-.409-.5175095-.684-.9481013-.684-.4305919 0-.8112311.275-.9481014.684l-1.3517187 4.06-.8651799-1.299c-.3706487-.556-1.2917756-.556-1.6624243 0l-1.7013873 2.555h-1.4636127v2zm-9.9905303-6c.5524763 0 .999053-.448.999053-1s-.4465767-1-.999053-1-.999053.448-.999053 1 .4465767 1 .999053 1" fill-rule="evenodd"/></svg>

<?xml version="1.0" encoding="UTF-8"?>
<svg width="40px" height="40px" viewBox="0 0 40 40" version="1.1" xmlns="http://www.w3.org/2000/svg" xmlns:xlink="http://www.w3.org/1999/xlink">
    <!-- Generator: Sketch 50.2 (55047) - http://www.bohemiancoding.com/sketch -->
    <title>Icons/photo-gallery</title>
    <desc>Created with Sketch.</desc>
    <defs>
        <path d="M26.9839015,26 L12.9971591,26 L12.9971591,16 L26.9839015,16 L26.9839015,26 Z M11.9981061,13 L27.9829545,13 L27.9829545,14 L11.9981061,14 L11.9981061,13 Z M29.9810606,15 L29.9810606,12 C29.9810606,11.448 29.5334848,11 28.9820076,11 L10.999053,11 C10.4475758,11 10,11.448 10,12 L10,15 C10,15.552 10.4475758,16 10.999053,16 L10.999053,26 L10,26 L10,28 L18.9914773,28 L18.9914773,30 L20.9895833,30 L20.9895833,28 L29.9810606,28 L29.9810606,26 L28.9820076,26 L28.9820076,16 C29.5334848,16 29.9810606,15.552 29.9810606,15 L29.9810606,15 Z M25.9848485,25 L25.9848485,23 L24.7070597,23 L22.9367377,17.684 C22.7998674,17.275 22.4192282,17 21.9886364,17 C21.5580445,17 21.1774053,17.275 21.040535,17.684 L19.6888163,21.744 L18.8236364,20.445 C18.4529877,19.889 17.5318608,19.889 17.1612121,20.445 L15.4598248,23 L13.9962121,23 L13.9962121,25 L25.9848485,25 Z M15.9943182,19 C16.5467945,19 16.9933712,18.552 16.9933712,18 C16.9933712,17.448 16.5467945,17 15.9943182,17 C15.4418419,17 14.9952652,17.448 14.9952652,18 C14.9952652,18.552 15.4418419,19 15.9943182,19" id="path-1"></path>
    </defs>
    <g id="Icons/photo-gallery" stroke="none" stroke-width="1" fill="none" fill-rule="evenodd">
        <mask id="mask-2" fill="white">
            <use xlink:href="#path-1"></use>
        </mask>
        <use id="Mask" fill="#000000" xlink:href="#path-1"></use>
    </g>
</svg>
